src/img/crowdfunding/start-up.svg

<svg width="72" height="60" viewBox="0 0 72 60" fill="none" xmlns="http://www.w3.org/2000/svg">
<path d="M23.314 12.5456C23.1683 12.4941 23.0202 12.4408 22.8718 12.3861V9.39599C23.5955 9.51327 24.1335 9.77076 24.1504 9.77877C24.6706 10.0368 25.3017 9.82631 25.5621 9.30712C25.8233 8.78638 25.6131 8.15259 25.0923 7.89145C25.0337 7.8622 24.111 7.4084 22.8718 7.27115V6.89484C22.8718 6.31223 22.3996 5.84015 21.8172 5.84015C21.2347 5.84015 20.7625 6.31223 20.7625 6.89484V7.4181C20.7259 7.42823 20.6892 7.43751 20.6526 7.44862C19.4825 7.80117 18.6088 8.79918 18.3726 10.053C18.1551 11.2065 18.5316 12.3244 19.3551 12.9703C19.7244 13.2601 20.1718 13.5259 20.7625 13.8002V17.6701C20.3956 17.601 20.0934 17.4551 19.6375 17.1571C19.1499 16.8379 18.4963 16.9747 18.1775 17.4624C17.8587 17.9499 17.9954 18.6036 18.4828 18.9224C19.3471 19.4877 19.9831 19.7146 20.7623 19.7961V20.3058C20.7623 20.8884 21.2346 21.3605 21.817 21.3605C22.3995 21.3605 22.8717 20.8884 22.8717 20.3058V19.6935C24.4615 19.2572 25.48 17.8855 25.7076 16.532C26.0057 14.7589 25.0438 13.1569 23.314 12.5456ZM20.657 11.3103C20.4586 11.1548 20.3756 10.8145 20.4455 10.4435C20.4861 10.2276 20.5895 9.98718 20.7626 9.79242V11.3888C20.7262 11.3628 20.6906 11.3366 20.657 11.3103ZM23.6276 16.1819C23.5528 16.6266 23.2967 17.0918 22.872 17.3942V14.6483C23.7056 15.0768 23.6835 15.8483 23.6276 16.1819Z" fill="#307BF0"/>
<path d="M51.4826 8.63606C52.0652 8.63606 52.5373 8.16398 52.5373 7.58138C52.5373 6.99877 52.0652 6.52669 51.4826 6.52669H39.1913C38.6087 6.52669 38.1366 6.99877 38.1366 7.58138C38.1366 8.16398 38.6087 8.63606 39.1913 8.63606H51.4826Z" fill="#213C94"/>
<path d="M33.9178 12.7282C33.9178 13.3108 34.3901 13.7829 34.9725 13.7829H51.4826C52.0652 13.7829 52.5373 13.3108 52.5373 12.7282C52.5373 12.1456 52.0652 11.6736 51.4826 11.6736H34.9725C34.3901 11.6736 33.9178 12.1456 33.9178 12.7282Z" fill="#307BF0"/>
<path d="M34.9725 18.9295H51.4826C52.0652 18.9295 52.5373 18.4575 52.5373 17.8748C52.5373 17.2922 52.0652 16.8202 51.4826 16.8202H34.9725C34.3901 16.8202 33.9178 17.2922 33.9178 17.8748C33.9178 18.4575 34.3901 18.9295 34.9725 18.9295Z" fill="#213C94"/>
<path d="M18.8765 39.3459C17.8687 39.3459 17.0488 40.1657 17.0488 41.1734V51.2508C17.0488 52.2585 17.8687 53.0783 18.8765 53.0783H25.4513C26.459 53.0783 27.2789 52.2585 27.2789 51.2508V41.1734C27.2789 40.1657 26.459 39.3459 25.4513 39.3459H18.8765ZM25.1696 50.969H19.1583V41.4553H25.1696V50.969Z" fill="#307BF0"/>
<path d="M30.8849 38.3609V51.2508C30.8849 52.2585 31.7047 53.0783 32.7124 53.0783H39.2874C40.2951 53.0783 41.1149 52.2585 41.1149 51.2508V38.3609C41.1149 37.3532 40.2951 36.5334 39.2874 36.5334H32.7124C31.7049 36.5334 30.8849 37.3532 30.8849 38.3609ZM32.9943 38.6428H39.0056V50.969H32.9943V38.6428Z" fill="#213C94"/>
<path d="M69.6486 36.9242C69.714 36.6868 69.7517 36.4379 69.7517 36.18V34.1692C69.7517 32.8702 68.8653 31.7775 67.6665 31.4557C67.7423 31.2015 67.7845 30.9327 67.7845 30.6541V28.6433C67.7845 28.3648 67.7423 28.096 67.6665 27.8418C68.8653 27.52 69.7517 26.427 69.7517 25.128V23.1175C69.7517 21.5668 68.49 20.3051 66.9393 20.3051H60.4413V2.1915C60.4413 0.983109 59.4582 0 58.2497 0H28.9233C28.3409 0 27.8686 0.472078 27.8686 1.05469C27.8686 1.6373 28.3409 2.10938 28.9233 2.10938H58.2497C58.295 2.10938 58.332 2.14622 58.332 2.1915V57.3355C58.332 57.3808 58.295 57.4176 58.2497 57.4176H13.7503C13.705 57.4176 13.6682 57.3808 13.6682 57.3355C13.6682 51.3302 13.6682 8.43483 13.6682 2.1915C13.6682 2.14622 13.705 2.10938 13.7503 2.10938H24.7064C25.2889 2.10938 25.7611 1.6373 25.7611 1.05469C25.7611 0.472078 25.2889 0 24.7064 0H13.7503C12.5419 0 11.5588 0.983109 11.5588 2.1915V25.8311H5.06067C3.51 25.8311 2.24831 27.0928 2.24831 28.6435V30.6543C2.24831 30.9122 2.28614 31.161 2.35139 31.3983C1.01967 31.6191 0 32.7759 0 34.1692V36.18C0 37.5735 1.01967 38.7302 2.35139 38.9513C2.286 39.1887 2.24831 39.4376 2.24831 39.6955V41.7061C2.24831 41.964 2.28614 42.2128 2.35139 42.4503C1.01967 42.6711 0 43.8278 0 45.2212V47.232C0 47.8969 0.233156 48.5076 0.620297 48.9897C0.233156 49.4716 0 50.0823 0 50.7472V52.7579C0 54.3087 1.26155 55.5704 2.81236 55.5704H4.49831C5.08078 55.5704 5.553 55.0983 5.553 54.5157C5.553 53.9331 5.08078 53.461 4.49831 53.461H2.81236C2.4248 53.461 2.10938 53.1456 2.10938 52.7579V50.7472C2.10938 50.3595 2.42466 50.0442 2.81236 50.0442H11.5588V53.461H8.71537C8.13291 53.461 7.66069 53.9331 7.66069 54.5157C7.66069 55.0983 8.13291 55.5704 8.71537 55.5704H11.5588V57.3355C11.5588 58.5439 12.5419 59.527 13.7503 59.527H58.2497C59.4582 59.527 60.4413 58.5439 60.4413 57.3355V55.5704H66.9393C68.49 55.5704 69.7517 54.3087 69.7517 52.7579V50.7472C69.7517 50.0823 69.5185 49.4716 69.1312 48.9895C69.5185 48.5076 69.7517 47.8967 69.7517 47.2319V45.2211C69.7517 44.9632 69.7139 44.7144 69.6486 44.477C70.9803 44.256 72 43.0992 72 41.7057V39.6951C72 38.302 70.9803 37.1451 69.6486 36.9242ZM4.35769 41.706V39.6953C4.35769 39.3076 4.67311 38.9924 5.06067 38.9924H11.5587V42.409H5.06067C4.67297 42.409 4.35769 42.0937 4.35769 41.706ZM4.35769 28.6433C4.35769 28.2556 4.67311 27.9404 5.06067 27.9404H11.5587V31.357H5.06067C4.67311 31.357 4.35769 31.0417 4.35769 30.6541V28.6433ZM2.10938 36.18V34.1692C2.10938 33.7816 2.42466 33.4664 2.81236 33.4664H5.06067H11.5587V36.883C9.45183 36.883 4.89417 36.883 2.81222 36.883C2.42466 36.883 2.10938 36.5677 2.10938 36.18ZM2.81236 47.9348C2.4248 47.9348 2.10938 47.6196 2.10938 47.232V45.2212C2.10938 44.8336 2.42466 44.5184 2.81236 44.5184H11.5588V47.9348H2.81236ZM67.6423 45.2212V47.232C67.6423 47.6196 67.327 47.9348 66.9393 47.9348H60.4413V44.5184H66.9393C67.327 44.5184 67.6423 44.8336 67.6423 45.2212ZM65.6751 28.6433V30.6541C65.6751 31.0417 65.3598 31.357 64.9721 31.357H60.4413V27.9405H64.9721C65.3598 27.9405 65.6751 28.2559 65.6751 28.6433ZM60.4413 33.4664H66.9393C67.327 33.4664 67.6423 33.7816 67.6423 34.1692V36.18C67.6423 36.5677 67.327 36.883 66.9393 36.883H60.4413V33.4664ZM66.9393 22.4144C67.327 22.4144 67.6423 22.7296 67.6423 23.1173V25.128C67.6423 25.5157 67.327 25.8311 66.9393 25.8311C65.8488 25.8311 62.1129 25.8311 60.4413 25.8311V22.4144H66.9393ZM67.6423 52.7579C67.6423 53.1456 67.327 53.461 66.9393 53.461H60.4413V50.0442H66.9393C67.327 50.0442 67.6423 50.3595 67.6423 50.7472V52.7579ZM69.8906 41.706C69.8906 42.0937 69.5753 42.409 69.1876 42.409C67.1141 42.409 62.5521 42.409 60.4413 42.409V38.9924H69.1876C69.5753 38.9924 69.8906 39.3076 69.8906 39.6953V41.706Z" fill="#213C94"/>
<path d="M53.8963 43.7521C54.4789 43.7521 54.951 43.28 54.951 42.6974V32.7359C54.951 31.7282 54.1312 30.9084 53.1234 30.9084H46.5485C45.5408 30.9084 44.7209 31.7282 44.7209 32.7359V51.2508C44.7209 52.2585 45.5408 53.0783 46.5485 53.0783H53.1234C54.1312 53.0783 54.951 52.2585 54.951 51.2508V46.9143C54.951 46.3317 54.4789 45.8596 53.8963 45.8596C53.3137 45.8596 52.8416 46.3317 52.8416 46.9143V50.969H46.8303V33.0178H52.8416V42.6974C52.8416 43.2799 53.3138 43.7521 53.8963 43.7521Z" fill="#307BF0"/>
</svg>

<svg xmlns="http://www.w3.org/2000/svg" width="72" height="60" fill="none"><path fill="#307BF0" d="M23.31 12.55c-.14-.06-.29-.1-.44-.16v-3c.73.12 1.26.38 1.28.39a1.05 1.05 0 00.94-1.89 7.15 7.15 0 00-2.22-.62V6.9a1.05 1.05 0 10-2.1 0v.53c-.04 0-.08.02-.12.03a3.32 3.32 0 00-2.28 2.6 2.96 2.96 0 00.99 2.92c.36.29.81.56 1.4.83v3.87a2.97 2.97 0 01-1.12-.51 1.05 1.05 0 10-1.16 1.76c.87.57 1.5.8 2.28.88v.5a1.05 1.05 0 102.11 0v-.6a4 4 0 002.84-3.17 3.52 3.52 0 00-2.4-3.98zm-2.65-1.24c-.2-.16-.28-.5-.21-.87.04-.21.14-.45.31-.65v1.6a3.02 3.02 0 01-.1-.08zm2.97 4.87a1.9 1.9 0 01-.76 1.21v-2.74c.84.43.81 1.2.76 1.53z"/><path fill="#213C94" d="M51.48 8.64a1.05 1.05 0 100-2.11H39.2a1.05 1.05 0 100 2.1h12.3z"/><path fill="#307BF0" d="M33.92 12.73c0 .58.47 1.05 1.05 1.05h16.51a1.05 1.05 0 100-2.1h-16.5c-.59 0-1.06.47-1.06 1.05z"/><path fill="#213C94" d="M34.97 18.93h16.51a1.05 1.05 0 100-2.11h-16.5a1.05 1.05 0 100 2.11z"/><path fill="#307BF0" d="M18.88 39.35c-1.01 0-1.83.82-1.83 1.82v10.08c0 1 .82 1.83 1.83 1.83h6.57c1 0 1.83-.82 1.83-1.83V41.17c0-1-.82-1.82-1.83-1.82h-6.57zm6.29 11.62h-6.01v-9.51h6.01v9.5z"/><path fill="#213C94" d="M30.88 38.36v12.9c0 1 .82 1.82 1.83 1.82h6.58c1 0 1.82-.82 1.82-1.83V38.36c0-1-.81-1.83-1.82-1.83H32.7c-1 0-1.83.82-1.83 1.83zm2.11.28h6.02v12.33h-6.02V38.64z"/><path fill="#213C94" d="M69.65 36.92c.06-.23.1-.48.1-.74v-2.01c0-1.3-.88-2.4-2.08-2.71.07-.26.11-.53.11-.8v-2.02c0-.28-.04-.54-.11-.8a2.82 2.82 0 002.08-2.71v-2.01a2.82 2.82 0 00-2.81-2.81h-6.5V2.19C60.44 1 59.46 0 58.25 0H28.92a1.05 1.05 0 100 2.1h29.33c.05 0 .08.05.08.1v55.14c0 .04-.03.08-.08.08h-44.5a.08.08 0 01-.08-.08c0-6.01 0-48.9 0-55.15 0-.04.04-.08.08-.08h10.96a1.05 1.05 0 100-2.11H13.75c-1.2 0-2.2.98-2.2 2.2v23.63H5.07a2.82 2.82 0 00-2.81 2.81v2.01c0 .26.04.51.1.75A2.81 2.81 0 000 34.17v2.01c0 1.4 1.02 2.55 2.35 2.77-.06.24-.1.49-.1.75v2c0 .26.04.51.1.75A2.81 2.81 0 000 45.22v2.01c0 .67.23 1.28.62 1.76A2.8 2.8 0 000 50.75v2a2.82 2.82 0 002.81 2.82H4.5a1.05 1.05 0 100-2.1H2.8a.7.7 0 01-.7-.71v-2.01c0-.4.31-.7.7-.7h8.75v3.41H8.72a1.05 1.05 0 100 2.11h2.84v1.77c0 1.2.98 2.19 2.19 2.19h44.5c1.2 0 2.2-.99 2.2-2.2v-1.76h6.49a2.82 2.82 0 002.81-2.81v-2.01a2.8 2.8 0 00-.62-1.76c.39-.48.62-1.1.62-1.76v-2c0-.27-.04-.52-.1-.75A2.81 2.81 0 0072 41.7V39.7c0-1.4-1.02-2.55-2.35-2.78zm-65.3 4.79V39.7c0-.4.32-.7.71-.7h6.5v3.4h-6.5a.7.7 0 01-.7-.7zm0-13.07c0-.38.32-.7.71-.7h6.5v3.42h-6.5a.7.7 0 01-.7-.7v-2.02zm-2.24 7.54v-2.01c0-.39.31-.7.7-.7h8.75v3.41c-2.1 0-6.67 0-8.75 0a.7.7 0 01-.7-.7zm.7 11.75a.7.7 0 01-.7-.7v-2c0-.4.31-.71.7-.71h8.75v3.41H2.8zm64.83-2.7v2a.7.7 0 01-.7.7h-6.5v-3.41h6.5c.39 0 .7.31.7.7zm-1.96-16.59v2.01a.7.7 0 01-.7.7h-4.54v-3.41h4.53c.39 0 .7.32.7.7zm-5.24 4.83h6.5c.39 0 .7.31.7.7v2.01a.7.7 0 01-.7.7h-6.5v-3.41zm6.5-11.06c.39 0 .7.32.7.7v2.02a.7.7 0 01-.7.7c-1.1 0-4.83 0-6.5 0v-3.42h6.5zm.7 30.35a.7.7 0 01-.7.7h-6.5v-3.42h6.5c.39 0 .7.32.7.7v2.02zM69.9 41.7a.7.7 0 01-.7.7c-2.08 0-6.64 0-8.75 0v-3.42h8.75c.39 0 .7.32.7.7v2.02z"/><path fill="#307BF0" d="M53.9 43.75c.58 0 1.05-.47 1.05-1.05v-9.96c0-1.01-.82-1.83-1.83-1.83h-6.57c-1 0-1.83.82-1.83 1.83v18.51c0 1 .82 1.83 1.83 1.83h6.57c1.01 0 1.83-.82 1.83-1.83v-4.34a1.05 1.05 0 10-2.1 0v4.06h-6.02V33.02h6.01v9.68c0 .58.47 1.05 1.06 1.05z"/></svg>
